docs/.gitbook/assets/icon-filter-16@dark.svg

<svg width="32" height="32" viewBox="0 0 16 16" fill="none" xmlns="http://www.w3.org/2000/svg">
<rect x="0" y="0" width="16" height="16" fill="#181c1f"/>
<path fill-rule="evenodd" clip-rule="evenodd" d="M1.00195 4.0874C1.00195 3.53512 1.44967 3.0874 2.00195 3.0874H13.998C14.5503 3.0874 14.998 3.53512 14.998 4.0874C14.998 4.63969 14.5503 5.0874 13.998 5.0874H2.00195C1.44967 5.0874 1.00195 4.63969 1.00195 4.0874ZM3.5 8.0874C3.5 7.53512 3.94772 7.0874 4.5 7.0874H11.5C12.0523 7.0874 12.5 7.53512 12.5 8.0874C12.5 8.63969 12.0523 9.0874 11.5 9.0874H4.5C3.94772 9.0874 3.5 8.63969 3.5 8.0874ZM5.5 12.0874C5.5 11.5351 5.94772 11.0874 6.5 11.0874H9.5C10.0523 11.0874 10.5 11.5351 10.5 12.0874C10.5 12.6397 10.0523 13.0874 9.5 13.0874H6.5C5.94772 13.0874 5.5 12.6397 5.5 12.0874Z" fill="#fff"/>
</svg>

<svg xmlns="http://www.w3.org/2000/svg" width="32" height="32" fill="none" viewBox="0 0 16 16"><path fill="#181c1f" d="M0 0h16v16H0z"/><path fill="#fff" fill-rule="evenodd" d="M1.002 4.087a1 1 0 0 1 1-1h11.996a1 1 0 1 1 0 2H2.002a1 1 0 0 1-1-1m2.498 4a1 1 0 0 1 1-1h7a1 1 0 1 1 0 2h-7a1 1 0 0 1-1-1m2 4a1 1 0 0 1 1-1h3a1 1 0 1 1 0 2h-3a1 1 0 0 1-1-1" clip-rule="evenodd"/></svg>
